!!!COM:	Bach, Johann Sebastian
!!!OMV:	Nun lob, mein Seel, den Herren
!!!OTL:	Nun lob, mein Seel, den Herren
**kern	**fb	**kern	**kern	**kern	**kern	**kern	**kern	**kern	**kern
*part9	*part9	*part8	*part7	*part6	*part5	*part4	*part3	*part2	*part1
*staff9	*	*staff8	*staff7	*staff6	*staff5	*staff4	*staff3	*staff2	*staff1
*I"Continuo	*	*I"Voice	*I"Voice	*I"Voice	*I"Voice	*I"Timpani	*I"D Trumpet	*I"D Trumpet	*I"D Trumpet
*I'Cont.	*	*I'V	*I'V	*I'V	*I'V	*I'Timp.	*I'D Tpt.	*I'D Tpt.	*I'D Tpt.
*clefF4	*	*clefF4	*clefGv2	*clefG2	*clefG2	*clefF4	*clefG2	*clefG2	*clefG2
*Trd0c0	*	*	*	*	*	*	*	*	*
*k[f#c#]	*	*k[f#c#]	*k[f#c#]	*k[f#c#]	*k[f#c#]	*k[f#c#]	*k[f#c#]	*k[f#c#]	*k[f#c#]
*M3/4	*	*M3/4	*M3/4	*M3/4	*M3/4	*M3/4	*M3/4	*M3/4	*M3/4
8dL	.	8dL	4f#	4a	4dd	4r	4r	4r	4r
8c#J	.	8c#J	.	.	.	.	.	.	.
=2	=2	=2	=2	=2	=2	=2	=2	=2	=2
4B	.	4B	2f#	4b	2dd	2.r	2.r	2.r	2.r
2F#	8 6	2F#	.	4a	.	.	.	.	.
.	7 5	.	8f#L	4a	4cc#	.	.	.	.
.	.	.	8eJ	.	.	.	.	.	.
=3	=3	=3	=3	=3	=3	=3	=3	=3	=3
8GL	9	8GL	4d	4a	2b	4r	4r	4r	4r
8F#J	.	8F#J	.	.	.	.	.	.	.
4E	8	4E	8eL	4g	.	4r	4r	4r	4r
.	7	.	8dJ	.	.	.	.	.	.
4F#	5	4F#	4c#	8aL	4a	4AA	8f#L	4ff#	4aa
.	.	.	.	8gJ	.	.	8aJ	.	.
=4	=4	=4	=4	=4	=4	=4	=4	=4	=4
8BL	.	8BL	2d	4f#	4dd	4D	4dd	4ff#	4dd
8AJ	.	8AJ	.	.	.	.	.	.	.
4G	6 5	4G	.	4b	2ee	4r	4d	2ee	8ggL
.	.	.	.	.	.	.	.	.	8ff#J
4A	.	4A	4c#	4a	.	4AA	4a	.	8eeL
.	.	.	.	.	.	.	.	.	8ggJ
=5	=5	=5	=5	=5	=5	=5	=5	=5	=5
2D;	.	2D;	2d;	2a;	2ff#;	2D;	2a;	2dd;	2ff#;
4D	.	4D	4d	4a	4ff#	4r	4r	4r	4r
=6	=6	=6	=6	=6	=6	=6	=6	=6	=6
4.d	.	4.d	2d	2a	8ff#L	2.r	2.r	2.r	2.r
.	.	.	.	.	8eeJ	.	.	.	.
.	.	.	.	.	2ff#	.	.	.	.
8c#L	.	8c#L	.	.	.	.	.	.	.
8B	5 4 2	8B	4c#	4cc#	.	.	.	.	.
8A#XJ	.	8A#XJ	.	.	.	.	.	.	.
=7	=7	=7	=7	=7	=7	=7	=7	=7	=7
8BL	5	8BL	2d	4f#	2ff#	2.r	2.r	4r	4r
8AJ	.	8AnJ	.	.	.	.	.	.	.
8GL	7	8GL	.	4b	.	.	.	4r	4r
8F#J	.	8F#J	.	.	.	.	.	.	.
8GL	6 4 2	8GL	4c#	4e	4ee	.	.	4ee	4aa
8EJ	.	8EJ	.	.	.	.	.	.	.
=8	=8	=8	=8	=8	=8	=8	=8	=8	=8
!!pagebreak:original
4F#	6	4F#	2d	4a	8ddL	4D	2.r	4a	4dd
.	.	.	.	.	8eeJ	.	.	.	.
4G	6 5	4G	.	4b	2ee	4r	.	2ee	8ggL
.	.	.	.	.	.	.	.	.	8ff#J
4A	.	4A	4c#	8aL	.	4AA	.	.	8eeL
.	.	.	.	8eJ	.	.	.	.	8ggJ
=	=	=	=	=	=	=	=	=	=
2D	.	2D	2A	2f#	2dd	2D	2a	2dd	2ff#
=9:|!	=9:|!	=9:|!	=9:|!	=9:|!	=9:|!	=9:|!	=9:|!	=9:|!	=9:|!
4F#	6	4F#	4d	4a	4dd	4r	4r	4r	4r
=10	=10	=10	=10	=10	=10	=10	=10	=10	=10
8GL	.	8GL	4g	4b	4dd	2.r	2.r	2.r	2.r
8AJ	.	8AJ	.	.	.	.	.	.	.
8GL	6 4 2	8GL	4c#	4a	4ee	.	.	.	.
8F#J	.	8F#J	.	.	.	.	.	.	.
8EL	7 4 2	8EL	4d	4a	4ff#	.	.	.	.
8DJ	.	8DJ	.	.	.	.	.	.	.
=11	=11	=11	=11	=11	=11	=11	=11	=11	=11
2A	4	2A	4d	8aL	2ee	2.r	2.r	2.r	2.r
.	.	.	.	8bJ	.	.	.	.	.
.	3	.	4c#	8aL	.	.	.	.	.
.	.	.	.	8gJ	.	.	.	.	.
4A#X	6	4A#X	4c#	4f#	8ff#L	.	.	.	.
.	5	.	.	.	8eeJ	.	.	.	.
=12	=12	=12	=12	=12	=12	=12	=12	=12	=12
4B	.	4B	2B	4f#	8ddL	2.r	2.r	2.r	2.r
.	.	.	.	.	8eeJ	.	.	.	.
4E	6 5	4E	.	8gL	2cc#	.	.	.	.
.	.	.	.	8f#J	.	.	.	.	.
4F#	#	4F#	4A#X	8eL	.	.	.	.	.
.	.	.	.	8f#J	.	.	.	.	.
=13	=13	=13	=13	=13	=13	=13	=13	=13	=13
2BB;	.	2BB;	2B;	2d;	2b;	2.r;	2.r;	2.r;	2.r;
4C#	#5\	4C#	8G#XL	4e	4ee	.	.	.	.
.	6	.	8AJ	.	.	.	.	.	.
=14	=14	=14	=14	=14	=14	=14	=14	=14	=14
8G#XL	6	8G#XL	8BL	2e	4ee	2.r	2.r	2.r	2.r
8EJ	.	8EJ	8G#XJ	.	.	.	.	.	.
8F#L	6	8F#L	8AL	.	4dd	.	.	.	.
8G#J	.	8G#J	8BJ	.	.	.	.	.	.
8AL	5	8AL	8c#L	4e	4cc#	.	.	.	.
8G#J	.	8G#J	8BJ	.	.	.	.	.	.
=15	=15	=15	=15	=15	=15	=15	=15	=15	=15
!!pagebreak:original
8F#L	6	8F#L	4A	2a	8ddL	2.r	2.r	2.r	2.r
8EJ	6 4	8EJ	.	.	8cc#J	.	.	.	.
4D	6 5	4D	4f#	.	2b	.	.	.	.
4E	5 #	4E	8eL	4g#X	.	.	.	.	.
.	.	.	8dJ	.	.	.	.	.	.
=16	=16	=16	=16	=16	=16	=16	=16	=16	=16
2AA;	.	2AA;	2c#;	2e;	2a;	2.r;	2.r;	2.r;	2.r;
8AL	.	8AL	8c#L	4e	4a	.	.	.	.
8GJ	.	8GnJ	8BJ	.	.	.	.	.	.
=17	=17	=17	=17	=17	=17	=17	=17	=17	=17
4F#	6	4F#	4A	8dL	2dd	2.r	2.r	2.r	2.r
.	.	.	.	8eJ	.	.	.	.	.
8BL	5	8BL	[2d	4f#	.	.	.	.	.
8AJ	.	8AJ	.	.	.	.	.	.	.
8GL	.	8GL	.	4b	4dd	.	.	.	.
8F#J	.	8F#J	.	.	.	.	.	.	.
=18	=18	=18	=18	=18	=18	=18	=18	=18	=18
8GL	6 5	8GL	4d]	4b	2ee	2.r	2.r	2.r	2.r
8EJ	.	8EJ	.	.	.	.	.	.	.
8AL	.	8AL	8c#L	4a	.	.	.	.	.
8GJ	.	8GJ	8BJ	.	.	.	.	.	.
8F#L	.	8F#L	4c#	4a	4ee	.	.	.	.
8EJ	.	8EJ	.	.	.	.	.	.	.
=19	=19	=19	=19	=19	=19	=19	=19	=19	=19
8DL	.	8DL	4d	[2.a	4ff#	2.r	2.r	2.r	2.r
8EJ	.	8EJ	.	.	.	.	.	.	.
8DL	5 2	8DL	4A	.	4ee	.	.	.	.
8C#J	.	8C#J	.	.	.	.	.	.	.
8DL	3	8DL	4d	.	4ff#	.	.	.	.
8F#J	.	8F#J	.	.	.	.	.	.	.
=20	=20	=20	=20	=20	=20	=20	=20	=20	=20
2G;	.	2G;	2B;	4a]	2dd;	2.r;	2.r;	2.r;	2.r;
.	.	.	.	4g;	.	.	.	.	.
8GL	.	8GL	4B	8gL	4dd	.	.	.	.
8F#J	.	8F#J	.	8aJ	.	.	.	.	.
=21	=21	=21	=21	=21	=21	=21	=21	=21	=21
4E	5	4E	2e	4b	2gg	2.r	2.r	2.r	2.r
8F#L	.	8F#L	.	8aL	.	.	.	.	.
8GJ	.	8GJ	.	8gJ	.	.	.	.	.
8AL	7 n	8AL	4e	8ccnL	4gg	.	.	.	.
8BJ	.	8BJ	.	8bJ	.	.	.	.	.
=22	=22	=22	=22	=22	=22	=22	=22	=22	=22
!!pagebreak:original
4cn	4	4cn	2e	8aL	8ff#L	2.r	2.r	2.r	2.r
.	3	.	.	8gJ	8eeJ	.	.	.	.
4A	6 5 n	4A	.	4ccn	2ff#	.	.	.	.
4B	#	4B	4d#X	8bL	.	.	.	.	.
.	.	.	.	8aJ	.	.	.	.	.
=23	=23	=23	=23	=23	=23	=23	=23	=23	=23
2E;	.	2E;	2B;	2g;	2ee;	2.r;	2.r;	2.r;	2.r;
4A	.	4A	4c#	4a	4ee	.	.	.	.
=24	=24	=24	=24	=24	=24	=24	=24	=24	=24
8dL	.	8dL	2d	4a	2ff#	2.r	2.r	2.r	2.r
8c#J	.	8c#J	.	.	.	.	.	.	.
8BL	.	8BL	.	[2b	.	.	.	.	.
8AJ	.	8AJ	.	.	.	.	.	.	.
8GL	7 5	8GL	4d	.	4ff#	.	.	.	.
8F#J	.	8F#J	.	.	.	.	.	.	.
=25	=25	=25	=25	=25	=25	=25	=25	=25	=25
8EL	5	8EL	4G	4b]	2gg	2.r	2.r	2.r	2.r
8DJ	.	8dJ	.	.	.	.	.	.	.
8CnL	.	8cnL	[2e	8aL	.	.	.	.	.
8BBJ	.	8BJ	.	8gJ	.	.	.	.	.
8AAL	7 5 n	8AL	.	8ccnL	4gg	.	.	.	.
8GGJ	.	8GJ	.	8bJ	.	.	.	.	.
=26	=26	=26	=26	=26	=26	=26	=26	=26	=26
4FF#	7	8F#L	4e]	8aL	4.aa	2.r	2.r	2.r	2.r
.	.	8GJ	.	8gJ	.	.	.	.	.
4F#	6	8F#L	4.d	[2a	.	.	.	.	.
.	.	8EJ	.	.	8ggL	.	.	.	.
4D	nr7	4D	.	.	8ff#	.	.	.	.
.	.	.	8cn	.	8eeJ	.	.	.	.
=27	=27	=27	=27	=27	=27	=27	=27	=27	=27
2G;	.	2G;	2B;	4a]	2dd;	2.r;	2.r;	2.r;	2.r;
.	.	.	.	4g;	.	.	.	.	.
4d	.	4d	8dL	4a	4ff#	.	.	.	.
.	.	.	8c#J	.	.	.	.	.	.
=28	=28	=28	=28	=28	=28	=28	=28	=28	=28
8G#XL	6	8G#XL	4B	2b	4ee	2.r	2.r	2.r	2.r
8EJ	.	8EJ	.	.	.	.	.	.	.
8F#L	6	8F#L	2e	.	4dd	.	.	.	.
8G#J	.	8G#J	.	.	.	.	.	.	.
8AL	.	8AL	.	4a	4cc#	.	.	.	.
8G#J	.	8G#J	.	.	.	.	.	.	.
=29	=29	=29	=29	=29	=29	=29	=29	=29	=29
!!pagebreak:original
8F#L	6	8F#L	8dL	2a	8ddL	2.r	2.r	2.r	2.r
8EJ	6 4	8EJ	8eJ	.	8cc#J	.	.	.	.
4D	6 5	4D	4f#	.	2b	.	.	.	.
4E	#	4E	8eL	4g#X	.	.	.	.	.
.	.	.	8dJ	.	.	.	.	.	.
=30	=30	=30	=30	=30	=30	=30	=30	=30	=30
2AA;	.	2AA;	2c#;	2e;	2a;	2.r;	2.r;	2.r;	2.r;
8AL	.	8AL	4c#	4e	4a	.	.	.	.
8G#XJ	.	8G#XJ	.	.	.	.	.	.	.
=31	=31	=31	=31	=31	=31	=31	=31	=31	=31
8F#L	6	8F#L	4c#	8aL	2dd	2.r	2.r	2.r	2.r
8EJ	.	8EJ	.	8g#XJ	.	.	.	.	.
8F#L	.	8F#L	4B	8aL	.	.	.	.	.
8G#XJ	.	8G#XJ	.	8bJ	.	.	.	.	.
4A	.	4A	4A	4e	4cc#	.	.	.	.
=32	=32	=32	=32	=32	=32	=32	=32	=32	=32
8D#XL	6 5	8D#XL	4A	4f#	2b	4r	4r	4r	4r
8C#J	.	8C#J	.	.	.	.	.	.	.
8D#L	6 #4|	8D#L	4G#X	4c#	.	4r	4r	4r	4r
8E#XJ	.	8E#XJ	.	.	.	.	.	.	.
8F#L	5	8F#L	4A	8c#L	4a	4D	4d	4ff#	[4aa
8EnJ	.	8EnJ	.	8dnJ	.	.	.	.	.
=33	=33	=33	=33	=33	=33	=33	=33	=33	=33
8DL	5 2	8DnL	2A	4e	4ee	4AA	4a	4ee	8aaL]
8C#J	.	8C#J	.	.	.	.	.	.	8ggJ
4D	.	2D	.	2a	2ff#	2BB	2a	2dd	8ff#L
.	.	.	.	.	.	.	.	.	8eeJ
4DD	.	.	4d	.	.	.	.	.	8ff#L
.	.	.	.	.	.	.	.	.	8gg#XJ
=34	=34	=34	=34	=34	=34	=34	=34	=34	=34
2AA;	.	2AA;	2c#;	2a;	2ee;	2AA;	2a;	2ee;	2aa;
8DL	.	8DL	4d	4a	4ff#	4r	4r	4r	4r
8C#J	.	8C#J	.	.	.	.	.	.	.
=35	=35	=35	=35	=35	=35	=35	=35	=35	=35
8BBL	8 6	8BBL	2d	4b	4gg	4r	4r	4r	4r
8AAJ	.	8AAJ	.	.	.	.	.	.	.
8BBL	7 5	8BBL	.	4a	4ff#	4r	4r	4r	4r
8DJ	.	8DJ	.	.	.	.	.	.	.
8C#L	6 5	8C#L	4A	4g	4ee	4AA	4a	4ee	4aa
8EJ	.	8EJ	.	.	.	.	.	.	.
=36	=36	=36	=36	=36	=36	=36	=36	=36	=36
!!pagebreak:original
4D	.	4D	2d	4f#	8ff#L	4D	4aa	8ff#L	4dd
.	.	.	.	.	8ggJ	.	.	8ggJ	.
4GG	6 5	4GG	.	8gL	2ee	4r	4r	2ee	8bbL
.	.	.	.	8f#J	.	.	.	.	8aaJ
4AA	.	4AA	4c#	4e	.	4AA	4a	.	8ggL
.	.	.	.	.	.	.	.	.	8aaJ
=37	=37	=37	=37	=37	=37	=37	=37	=37	=37
2DD;	.	2D;	2A;	2f#;	2dd;	2D;	2a;	2dd;	2ff#;
=||	=||	=||	=||	=||	=||	=||	=||	=||	=||
*-	*-	*-	*-	*-	*-	*-	*-	*-	*-
!!!system-decoration: s1,s2,s3,s4,s5,s6,s7,s8,s9
